X:1
T:O vous , mes yeulx
T:Du Bar
T:Source : Livre IV de 24 chansons nouvelles à 4 parties---Paris---N.du Chemin---1549. Editor : André Vierendeels (21/02/18) Notes : Original clefs (G2, C2, C3, C4 Original note values have been halved Editorial accidentals above the stave
T:O vous , mes yeulx
T:©
T:©
T:©
T:©
C:Du Bar
Z:©
%%score [ 1 2 3 4 ]
L:1/8
Q:1/4=120
M:2/2
K:C
V:1 treble nm="Soprano" snm="S"
V:2 treble nm="Alto" snm="A"
V:3 treble-8 nm="Tenor" snm="T"
V:4 bass nm="Bass" snm="B"
V:1
 c8 | c4 c4- | c2 BA B2 z B | B2 B2 A2 A2 | G2 G2 A2 B2 | c3 B A2 G2 | z2 g2 gfed | c2 d4 c2- | %8
w: O|vous, mes|_ _ _ yeulx qui|a- vez in- ci-|té mon tri- ste|coeur, _ _ _|à tel- * * *|* le pas-|
w: O|hault pen-|* * * ser qui|m'a- vez re- ci-|té par tant de|fois, _ _ _|tel- le _ _ _|_ per- fec-|
[M:2/4] c2 B2 |1 c4 :|2[M:2/2] c4 z2 c2 || B2 A2 G4- | G2 F2 G3 F | E3 D EF G2- | G2 F4 ED | %15
w: * si-|on,|on, ma|li- ber- té|_ pour trop _|_ d'af- fec- * *|* ti- * *|
w: * ti-|on,||||||
 E4 A4 | A2 A2 G4 | z2 c2 f2 f2 | e4 z2 e2 | e3 d c2 B2- | B2 A4 G2 |[M:2/4] A4 |: %22
w: on, chan-|gé m'a- vez,|chan- gé m'a-|vez, o,|quel- le re- com-|* pen- *|se,|
w: |||||||
[M:2/2] z2 A2 A4 | A4 G2 G2 | G2 G2 A2 A2 | G2 G2 A2 B2 | c3 B A2 G2 | z2 g2 gfed | c2 d4 c2- | %29
w: dont vient|ce- la que|la pu- ni- ti-|on, ne re- cep-|vez, _ _ _|d'u- ne _ _ _|si grief- ve'of-|
w: |||||||
 c2 B2 c4- | c8 |] %31
w: * fen- se.||
w: ||
V:2
 G8 | G4 A4 | G2 G2 G2 G2 | DCDE F2 F2 | E2 E2 D2 D2 | C2 C2 E2 D2 | C2 G,2 G4 | A2 B2 A2 F2 | %8
w: O|vous, mes|yeulx qui a- vez|in- * * * * ci-|té mon tri- ste|coeur, mon tri- ste|coeur, à tel-|le pas- * *|
w: O|hault pen-|ser qui m'a- vez|re- * * * * ci-|yé par tant de|fois, par tant de|fois tel- le|per- fec- * *|
[M:2/4] G4 |1 G4 :|2[M:2/2] z2 E2 D2 C2 || D2 F2 E4 | D4 B,2 C2 | G,2 B,4 D2 | G,2 A,4 G,F, | %15
w: si-|on,|ma li- ber-|té pour trop|d'af- fec- ti-|on, pour trop|d'af- fec- ti- *|
w: ti-|on,||||||
 G,4 z2 A,2 | C2 C2 C4 | z2 A2 c2 c2 | c2 c2 c2 G2 | A2 B2 A2 G2 | F2 D2 E4 |[M:2/4] E4 |: %22
w: on, chan-|gez m'a- vez,|chan- gez m'a-|vez, o, quel- le|re- com- pen- *||se,|
w: |||||||
[M:2/2] z2 E2 E4 | F4 E2 E2 | D2 D2 F2 F2 | E2 E2 D2 D2 | C2 C2 E2 D2 | C2 G,2 G2 G2 | %28
w: dont vient|ce- la que|la pu- ni- ti-|on, ne re- cep-|vez, ne re- cep-|vez d'u- ne si|
w: ||||||
 A2 B2 A2 F2 | G4 G4- | G8 |] %31
w: grief- ve'of- fen- *|* ce,|_|
w: |||
V:3
 c8 | e4 f4 | d4 z2 d2 | g2 g2 fedc | B2 c2 A2 G2 | z2 G2 A2 B2 | c2 d2 e2 c2 | f2 d2 fedc | %8
w: O|vous, mes|yeulx qui|a- vez in- * * *|* * ci- té|mon tri- ste|coeur à tel- le|pas- si- * * * *|
w: O|hault pen-|ser qui|m'a- vez re- * * *|* * ci- té|par tant de|fois tel- le per-|fec- ti- * * * *|
[M:2/4] d4 |1 c4 :|2[M:2/2] c4 z4 || z4 z2 c2 | B2 A2 G2 e2 | g3 f e2 d2- | d2 c4 B2 | c4 z2 c2 | %16
w: |on,|on,|ma|li- ber- té pour|trop _ _ d'af-|* fec- ti-|on, chan-|
w: |on,|||||||
 f2 f2 e4 | f4 f2 f2 | g8 | z2 e2 e3 d | c2 BA B4 |[M:2/4] A4 |:[M:2/2] z2 A2 c4 | d4 B2 B2 | %24
w: gé m'a- vez,|chan- gé m'a-|vez,|o, quel- le|re- com- * pen-|se,|dont vient|ce- la que|
w: ||||||||
 B2 B2 d3 c | B2 c2 A2 G2 | z2 G2 A2 B2 | c2 d2 e2 c2 | f2 d2 fedc | d4 c4- | c8 |] %31
w: la pu- ni- ti-|on, ne re- cep-|ne re- cep-|vez d'u- ne si|grief- ve'of- fen- * * *|* ce.|_|
w: |||||||
V:4
 C,8 | C4 F,4 | G,4 z2 G,2 | G,2 G,2 D,2 D,2 | E,2 E,2 F,2 G,2 | C,4 z2 G,2 | A,2 B,2 C3 B, | %7
w: O|vous, mes|yeulx qui|a- vez in- ci-|té mon tri- ste|coeur, mon|tri- ste coeur à|
w: O|hault pen-|ser qui|m'a- vez re- ci-|té par tant de|fois, par|tant de fois tel-|
 A,2 G,2 F,2 A,2 |[M:2/4] G,4 |1 C,4 :|2[M:2/2] C,2 C2 B,2 A,2 || G,2 D,2 E,2 C,2 | G,2 D,2 E,4 | %13
w: tel- le pas- *|si-|on,|o, ma li- ber-|té pour trop d'af-|fec- ti- on,|
w: le per- fec- *|ti-|on,||||
 z2 E,2 G,3 F, | E,2 F,2 D,2 D,2 | C,4 F,4 | F,2 F,2 C,4 | z2 F,2 F,2 F,2 | C4 z2 C2 | %19
w: pour trop _|_ d'af- fec- ti-|on, chan-|gé m'a- vez,|chan- gé m'a-|vez, o,|
w: ||||||
 C2 G,2 A,2 E,2 | F,4 E,4 |[M:2/4] A,4 |:[M:2/2] z2 A,2 A,4 | D,4 E,2 E,2 | G,2 G,2 D,2 D,2 | %25
w: quel- le re- com-|pen- *|se,|dont vient|ce- la que|la pu- ni- ti-|
w: ||||||
 E,2 E,2 F,2 G,2 | C,4 z2 G,2 | A,2 B,2 C3 B, | A,2 G,2 F,2 A,2 | G,4 C,4- | C,8 |] %31
w: on, ne re- cep-|vez, ne|re cep- vez d'u-|ne si- grief- ve'of-|fen- ce.|_|
w: ||||||

